64x64/apps/jp.yvt.OpenSpades.svg

<svg height="64" width="64" xmlns="http://www.w3.org/2000/svg"><path d="m7 28v27.2c0 1.551 1.249 2.8 2.8 2.8h44.4c1.551 0 2.8-1.249 2.8-2.8v-27.2z" opacity=".2"/><path d="m7 27v27.2c0 1.551 1.249 2.8 2.8 2.8h44.4c1.551 0 2.8-1.249 2.8-2.8v-27.2z" fill="#ffffbf"/><path d="m57 27v-17.2c0-1.551-1.249-2.8-2.8-2.8h-44.4a2.794 2.794 0 0 0 -2.8 2.8v17.2z" fill="#6765f6"/><path d="m17 28h10v10h-10z" opacity=".1"/><path d="m17 27h10v10h-10z" fill="#17191e"/><path d="m37 28h10v10h-10z" opacity=".1"/><path d="m37 27h10v10h-10z" fill="#17191e"/><path d="m9.8 7c-1.55 0-2.8 1.25-2.8 2.8v1c0-1.55 1.25-2.8 2.8-2.8h44.4c1.55 0 2.8 1.25 2.8 2.8v-1c0-1.55-1.25-2.8-2.8-2.8z" fill="#f4f4f7" opacity=".1"/></svg>

<svg xmlns="http://www.w3.org/2000/svg" width="64" height="64" version="1"><path style="opacity:.2" d="M7 28v27.2C7 56.751 8.249 58 9.8 58h44.4c1.551 0 2.8-1.249 2.8-2.8V28z"/><path style="fill:#ffffbf" d="M7 27v27.2C7 55.751 8.249 57 9.8 57h44.4c1.551 0 2.8-1.249 2.8-2.8V27z"/><path style="fill:#6765f6" d="M57 27V9.8C57 8.249 55.751 7 54.2 7H9.8A2.794 2.794 0 0 0 7 9.8V27z"/><path style="opacity:.1" d="M17 28h10v10H17z"/><path style="fill:#17191e" d="M17 27h10v10H17z"/><path style="opacity:.1" d="M37 28h10v10H37z"/><path style="fill:#17191e" d="M37 27h10v10H37z"/><path style="opacity:.1;fill:#f4f4f7" d="M9.8 7C8.25 7 7 8.25 7 9.8v1C7 9.25 8.25 8 9.8 8h44.4c1.55 0 2.8 1.25 2.8 2.8v-1C57 8.25 55.75 7 54.2 7H9.8z"/></svg>
